src/assets/img/brands/nike.svg

<svg viewBox="0 0 370 132" fill="none" xmlns="http://www.w3.org/2000/svg">
<path d="M41.6129 131.892C30.6337 131.453 21.6511 128.435 14.6274 122.829C13.287 121.758 10.0929 118.547 9.02127 117.192C6.17307 113.594 4.23668 110.092 2.94512 106.207C-1.0292 94.2461 1.01624 78.5514 8.79568 61.3266C15.4565 46.58 25.7345 31.9544 43.6659 11.6979C46.3073 8.71727 54.1732 0 54.224 0C54.2428 0 53.8141 0.746124 53.2746 1.65468C48.6122 9.50112 44.6228 18.7434 42.4496 26.7448C38.9584 39.5835 39.3795 50.6015 43.6828 59.1449C46.6513 65.0307 51.7405 70.1288 57.4632 72.947C67.4817 77.8789 82.1495 78.2869 100.062 74.1408C101.295 73.8537 162.407 57.5545 235.866 37.9195C309.325 18.2826 369.438 2.22891 369.447 2.24213C369.468 2.25913 198.781 75.6425 110.175 113.713C96.1424 119.74 92.3899 121.263 85.7929 123.59C68.9293 129.54 53.8235 132.379 41.6129 131.892Z" fill="currentColor"/>
</svg>

<svg viewBox="0 0 370 132" fill="none" xmlns="http://www.w3.org/2000/svg"><path d="M41.613 131.892c-10.98-.439-19.962-3.457-26.986-9.063-1.34-1.071-4.534-4.282-5.606-5.637-2.848-3.598-4.784-7.1-6.076-10.985-3.974-11.96-1.929-27.656 5.85-44.88 6.662-14.747 16.94-29.373 34.87-49.63C46.308 8.718 54.174 0 54.225 0c.019 0-.41.746-.95 1.655-4.662 7.846-8.651 17.088-10.824 25.09-3.492 12.838-3.07 23.857 1.233 32.4 2.968 5.886 8.057 10.984 13.78 13.802 10.019 4.932 24.687 5.34 42.599 1.194 1.233-.287 62.345-16.587 135.804-36.222C309.325 18.284 369.438 2.23 369.447 2.242c.021.017-170.666 73.4-259.272 111.471-14.033 6.027-17.785 7.55-24.382 9.877-16.864 5.95-31.97 8.789-44.18 8.302z" fill="currentColor"/></svg>
